X: 1386
T: The Lady Behind The Boat
M:C|
L:1/8
N:"collected by Dillon"
B:O'Neill's 1386
Z:"Transcribed by Bob Safranek, rjs@gsp.org"
K:D
((3AB"   Sign"c) |: d2 cA BGGE | DEFD EA, ((3{B,}A,G,A,) | DFAc dfed |1 ((3cBA) Bc dfed :|2 ((3cBA) Bc d2||
((3ABc)|  d2 dc dfed | c2 cB cedc | d2 dc dfed | ecAc (TBA)(Bc)|
          dfaf  gfed | Beef  ecAc | defd  cdec | BABc dfe"   Sign"c |]


